build/system/CloseFullscreenSolid.svg

<svg xmlns="http://www.w3.org/2000/svg" fill="none" viewBox="0 0 24 24" focusable="false"><path d="M0 0H24V24H0z"/><path fill="#74767B" fill-rule="evenodd" d="M4 7C4 5.34315 5.34315 4 7 4L17 4C18.6569 4 20 5.34315 20 7L20 17C20 18.6569 18.6569 20 17 20L7 20C5.34315 20 4 18.6569 4 17L4 7ZM6.09402 13.7542C6.09402 13.3952 6.38504 13.1042 6.74402 13.1042L10.2445 13.1042C10.6035 13.1042 10.8945 13.3952 10.8945 13.7542L10.8945 17.2547C10.8945 17.6137 10.6035 17.9047 10.2445 17.9047C9.88556 17.9047 9.59454 17.6137 9.59454 17.2547L9.59454 15.3234L7.11219 17.8058C6.85835 18.0596 6.44679 18.0596 6.19295 17.8058C5.9391 17.5519 5.9391 17.1404 6.19294 16.8865L8.67526 14.4042L6.74402 14.4042C6.38504 14.4042 6.09402 14.1132 6.09402 13.7542ZM10.2485 6.09015C10.6075 6.09015 10.8985 6.38116 10.8985 6.74015L10.8985 10.2407C10.8985 10.5997 10.6075 10.8907 10.2485 10.8907L6.74796 10.8907C6.38897 10.8907 6.09796 10.5997 6.09796 10.2407C6.09796 9.88168 6.38897 9.59067 6.74796 9.59067L8.67928 9.59067L6.1969 7.10831C5.94306 6.85447 5.94306 6.44291 6.1969 6.18907C6.45074 5.93523 6.86229 5.93523 7.11614 6.18907L9.59848 8.67139L9.59848 6.74015C9.59848 6.38116 9.88949 6.09015 10.2485 6.09015ZM17.9125 10.2407C17.9125 10.5996 17.6215 10.8907 17.2625 10.8907L13.762 10.8907C13.403 10.8907 13.112 10.5996 13.112 10.2407L13.112 6.74015C13.112 6.38116 13.403 6.09015 13.762 6.09015C14.121 6.09015 14.412 6.38116 14.412 6.74015L14.412 8.67146L16.8943 6.18909C17.1482 5.93525 17.5597 5.93524 17.8136 6.18908C18.0674 6.44292 18.0674 6.85448 17.8136 7.10832L15.3313 9.59066L17.2625 9.59066C17.6215 9.59066 17.9125 9.88168 17.9125 10.2407ZM13.762 17.9008C13.403 17.9008 13.112 17.6098 13.112 17.2508L13.112 13.7503C13.112 13.3913 13.403 13.1003 13.762 13.1003L17.2625 13.1003C17.6215 13.1003 17.9125 13.3913 17.9125 13.7503C17.9125 14.1093 17.6215 14.4003 17.2625 14.4003L15.3312 14.4003L17.8135 16.8826C18.0674 17.1365 18.0674 17.548 17.8135 17.8019C17.5597 18.0557 17.1481 18.0557 16.8943 17.8019L14.412 15.3195L14.412 17.2508C14.412 17.6098 14.1209 17.9008 13.762 17.9008Z"/></svg>

<svg xmlns="http://www.w3.org/2000/svg" fill="none" viewBox="0 0 24 24" focusable="false"><path fill="#74767B" fill-rule="evenodd" d="M4 7c0-1.66 1.34-3 3-3h10c1.65 0 3 1.34 3 3v10c0 1.65-1.35 3-3 3H7c-1.66 0-3-1.35-3-3zm2.09 6.75c0-.36.29-.65.65-.65h3.5c.36 0 .65.29.65.65v3.5c0 .36-.29.65-.65.65s-.65-.29-.65-.65v-1.93L7.11 17.8c-.26.25-.67.25-.92 0a.64.64 0 0 1 0-.92l2.48-2.48H6.74c-.36 0-.65-.29-.65-.65m4.15-7.66c.36 0 .65.29.65.65v3.5c0 .35-.29.65-.65.65h-3.5c-.36 0-.65-.3-.65-.65 0-.36.29-.65.65-.65h1.93L6.19 7.1a.66.66 0 0 1 0-.92c.26-.25.67-.25.92 0l2.48 2.49V6.74c0-.36.29-.65.65-.65m7.67 4.15c0 .35-.29.65-.65.65h-3.5c-.36 0-.65-.3-.65-.65v-3.5c0-.36.29-.65.65-.65s.65.29.65.65v1.93l2.48-2.49c.25-.25.66-.25.92 0 .25.26.25.67 0 .92l-2.48 2.49h1.93c.36 0 .65.29.65.65m-4.15 7.66c-.36 0-.65-.3-.65-.65v-3.5c0-.36.29-.65.65-.65h3.5c.36 0 .65.29.65.65 0 .35-.29.65-.65.65h-1.93l2.48 2.48c.25.25.25.66 0 .92-.26.25-.67.25-.92 0l-2.48-2.49v1.94c0 .35-.29.65-.65.65"/></svg>
